X: 18706
T: I'm Waiting For You
R: reel
M: 4/4
K: Gmajor
|:dB|G2dG AGd2|AGFG ABcA|BGGF G2B^c|dafd cAFA|
BGG2 dGBG|FGAB c2dc|B2GB cBAG|FADF G2:|
|:(3Bcd|g2fg ecAG|FDAD BDAF|E3F GFGA|(3Bcd d^c d2fa|
g2fg ecAG|FDAD BDAF|G2FE DG (3Bcd|cAFA GA:|

